packages/sources/icons/src/vitamix/image-fill.svg

<svg width="16" height="16" viewBox="0 0 16 16" fill="none" xmlns="http://www.w3.org/2000/svg">
<path fill-rule="evenodd" clip-rule="evenodd" d="M1.33333 2.662C1.33587 2.2977 1.63037 2.00291 1.99467 2H14.0053C14.3707 2 14.6667 2.29667 14.6667 2.662V13.338C14.6641 13.7023 14.3696 13.9971 14.0053 14H1.99467C1.62931 13.9996 1.33333 13.7034 1.33333 13.338V2.662ZM13.3333 3.33333H2.66667V12.6667L8.86133 6.47067C9.12167 6.21041 9.54366 6.21041 9.804 6.47067L13.3333 10.0067V3.33333ZM4 6C4 6.73638 4.59695 7.33333 5.33333 7.33333C6.06971 7.33333 6.66667 6.73638 6.66667 6C6.66667 5.26362 6.06971 4.66667 5.33333 4.66667C4.59695 4.66667 4 5.26362 4 6Z" fill="#001018"/>
</svg>

<svg width="16" height="16" fill="none" xmlns="http://www.w3.org/2000/svg"><path fill-rule="evenodd" clip-rule="evenodd" d="M1.333 2.662A.667.667 0 0 1 1.995 2h12.01c.366 0 .662.297.662.662v10.676a.667.667 0 0 1-.662.662H1.995a.662.662 0 0 1-.662-.662V2.662zm12 .671H2.667v9.334L8.86 6.47c.26-.26.683-.26.943 0l3.53 3.536V3.333zM4 6a1.333 1.333 0 1 0 2.667 0A1.333 1.333 0 0 0 4 6z" fill="#001018"/></svg>
